icons/2_Variations/Neopets bg.var.svg

<svg width="1024" height="1024" fill="none" xmlns="http://www.w3.org/2000/svg"><g clip-path="url(#a)"><path d="M512 1024c282.77 0 512-229.23 512-512S794.77 0 512 0 0 229.23 0 512s229.23 512 512 512Z" fill="#F8C18C"/><path d="M310.07 522.48c4.36 18.727 6.027 34.823 5 48.29h-23.28c1.153-39.38-10.513-60.287-35-62.72-21.933-.767-31.423 19.69-28.47 61.37h-26.19c-2.053-51.56 6.86-80.87 26.74-87.93 19.88-6.927 37.323-6.543 52.33 1.15 14.88 7.707 24.503 20.987 28.87 39.84Zm104.66 16.35 6.35 15.2c-7.054 9.233-18.02 15.39-32.9 18.47-14.88 2.82-30.213 1.73-46-3.27-15.787-5-23.997-17.313-24.63-36.94-.367-11.287.73-20.717 3.29-28.29 1.413-5.133 4.747-9.047 10-11.74 5.133-2.82 14.24-5.13 27.32-6.93a103.744 103.744 0 0 1 39.25 1.35c14.367 4.62 22.063 12.83 23.09 24.63.767 11.8-1.157 18.597-5.77 20.39h-75.42c.127 16.287 10.127 24.43 30 24.43 20.02.14 35.16-5.623 45.42-17.29v-.01ZM352 512.28h43.67c-.26-9.62-8.02-14.237-23.28-13.85-14.1.64-20.897 5.257-20.39 13.85Zm298 15.2c-1.413 32.193-28.027 47.587-79.84 46.18l1.92 33.86h-29.21V487.27h59.83c34.76.133 50.527 13.537 47.3 40.21Zm-30-2.89c-.767-14.24-16.48-20.907-47.14-20L570 549.22c31.293.133 47.96-8.073 50-24.62v-.01Zm-82.54 1.92v.19c0 13.08-5.13 24.303-15.39 33.67-10.387 9.233-22.83 13.85-37.33 13.85h-7.89c-14.493 0-26.87-4.617-37.13-13.85-10.26-9.333-15.39-20.557-15.39-33.67v-.19c0-13.213 4.747-23.73 14.24-31.55A67.591 67.591 0 0 1 459 483.23a86.753 86.753 0 0 1 21.36-3.08c6.189-.372 12.4.082 18.47 1.35a52.854 52.854 0 0 1 23.86 12.12 42.01 42.01 0 0 1 11.107 14.781 42.013 42.013 0 0 1 3.683 18.119l-.02-.01Zm-30.78-2.31a14.448 14.448 0 0 0-4.43-10.58 14.115 14.115 0 0 0-10.39-4.23h-17.29a15 15 0 0 0-10.2 4.23 14.443 14.443 0 0 0-4.43 10.58v8.85a14.209 14.209 0 0 0 4.43 10.39 14.61 14.61 0 0 0 10.2 4.43h.43c1.28.127 2.69.32 4.23.58h8.27c1.413-.127 2.89-.32 4.43-.58a13.823 13.823 0 0 0 10.39-4.43 14.215 14.215 0 0 0 4.43-10.39l-.07-8.85Zm360.55-.38c-7.06-3.133-10.65-6.853-10.77-11.16 0-4.167 3.076-6.283 9.23-6.35 6.173.04 9.84 2.67 11 7.89l17.89-8.47c.126-6.54-3.337-11.54-10.39-15a37.064 37.064 0 0 0-11.54-3.66c-14.753-3.207-26.553.127-35.4 10-8.853 9.747-9.75 18.853-2.69 27.32 7.053 8.34 14.687 14.623 22.9 18.85 8.34 4.107 10.906 7.827 7.7 11.16-3.334 3.333-10.13 2.563-20.39-2.31L831.85 560c2.667 6.8 10.3 11.93 22.9 15.39 12.6 3.46 23.373.19 32.32-9.81 8.966-10.053 9.673-18.72 2.12-26-7.46-7.247-14.773-12.497-21.94-15.75l-.02-.01Zm-66.38-13.47c9.333 21.42 7.73 33.087-4.81 35-9.494.767-14.944-4.3-16.35-15.2a260.866 260.866 0 0 1-2.31-43.87h25.78v-19.59l-26 .38 3.66-24.24-27.51 2.31L756 470l-30.4-2.12v20.78h31.94c-3.207 36.3-.897 60.093 6.93 71.38 7.693 11.287 18.277 16.62 31.75 16 20.907-.387 31.617-10.647 32.13-30.78 0-15.133-2.887-27.51-8.66-37.13l-18.84 2.22ZM747 538.45l7.7 12.89c-5.513 9.333-15.133 16.26-28.86 20.78-13.467 4.107-27.833 4.747-43.1 1.92-15.133-2.953-24.047-13.287-26.74-31-1.667-10.387-1.474-18.387.58-24 2.18-5.773 5.323-10.2 9.43-13.28 4-3.207 11.76-6.413 23.28-9.62a96.4 96.4 0 0 1 36-3.27c13.853 2.667 21.853 9.333 24 20 2.053 10.667 1.027 17-3.08 19L676 540c1.927 14.88 12.187 21.293 30.78 19.24 18.593-2.053 32-8.983 40.22-20.79Zm-61.18-18.85c.007.581.07 1.161.19 1.73l40.21-5c-1.927-7.693-9.56-10.517-22.9-8.47-11.287 1.793-17.12 5.707-17.5 11.74Zm-310.4-65.12L414 437.9l39.65 33.51-8.75-38.91-1.53-6.5 34.25-20.85h-39.28L430.71 377l-21.59 28.3h-33.89l20.29 19-20.1 30.18Zm-147.29 12.38L252.84 444l39 14.73-17-27.09-2.87-4.53 20.33-24.94-2.39.85-27.32 9.67-13.3-19.22-8.76 27.19-22.53 8-3.1 1.1 20.43 8.93-7.2 28.17Zm-76.35 26.85 8.66-25.36-1.61 1.33-18.41 15.12-15.75-11.65.93 24-15.13 12.43-2.13 1.75 18.35 1.53 2.47 24.35 12.65-24.89 34.34 1.09-20.87-16.88-3.5-2.82Z" fill="#fff"/></g><defs><clipPath id="a"><path fill="#fff" d="M0 0h1024v1024H0z"/></clipPath></defs></svg>

<svg width="1024" height="1024" viewBox="0 0 1024 1024" fill="none" xmlns="http://www.w3.org/2000/svg">
<g clip-path="url(#clip0_3_176)">
<path d="M512 1024C794.77 1024 1024 794.77 1024 512C1024 229.23 794.77 0 512 0C229.23 0 0 229.23 0 512C0 794.77 229.23 1024 512 1024Z" fill="#F8C18C"/>
<path d="M310.07 522.48C314.43 541.207 316.097 557.303 315.07 570.77H291.79C292.943 531.39 281.277 510.483 256.79 508.05C234.857 507.283 225.367 527.74 228.32 569.42H202.13C200.077 517.86 208.99 488.55 228.87 481.49C248.75 474.563 266.193 474.947 281.2 482.64C296.08 490.347 305.703 503.627 310.07 522.48ZM414.73 538.83L421.08 554.03C414.026 563.263 403.06 569.42 388.18 572.5C373.3 575.32 357.967 574.23 342.18 569.23C326.393 564.23 318.183 551.917 317.55 532.29C317.183 521.003 318.28 511.573 320.84 504C322.253 498.867 325.587 494.953 330.84 492.26C335.973 489.44 345.08 487.13 358.16 485.33C371.21 483.277 384.532 483.735 397.41 486.68C411.777 491.3 419.473 499.51 420.5 511.31C421.267 523.11 419.343 529.907 414.73 531.7H339.31C339.437 547.987 349.437 556.13 369.31 556.13C389.33 556.27 404.47 550.507 414.73 538.84V538.83ZM352 512.28H395.67C395.41 502.66 387.65 498.043 372.39 498.43C358.29 499.07 351.493 503.687 352 512.28ZM650 527.48C648.587 559.673 621.973 575.067 570.16 573.66L572.08 607.52H542.87V487.27H602.7C637.46 487.403 653.227 500.807 650 527.48ZM620 524.59C619.233 510.35 603.52 503.683 572.86 504.59L570 549.22C601.293 549.353 617.96 541.147 620 524.6V524.59ZM537.46 526.51V526.7C537.46 539.78 532.33 551.003 522.07 560.37C511.683 569.603 499.24 574.22 484.74 574.22H476.85C462.357 574.22 449.98 569.603 439.72 560.37C429.46 551.037 424.33 539.813 424.33 526.7V526.51C424.33 513.297 429.077 502.78 438.57 494.96C444.641 489.884 451.556 485.914 459 483.23C465.964 481.318 473.139 480.284 480.36 480.15C486.549 479.778 492.76 480.232 498.83 481.5C507.691 483.426 515.908 487.6 522.69 493.62C527.444 497.661 531.238 502.71 533.797 508.401C536.355 514.092 537.613 520.282 537.48 526.52L537.46 526.51ZM506.68 524.2C506.703 522.227 506.322 520.271 505.56 518.451C504.798 516.632 503.672 514.987 502.25 513.62C500.899 512.242 499.28 511.156 497.493 510.429C495.706 509.701 493.789 509.348 491.86 509.39H474.57C470.756 509.452 467.108 510.964 464.37 513.62C462.948 514.987 461.821 516.632 461.059 518.451C460.297 520.271 459.916 522.227 459.94 524.2V533.05C459.929 534.993 460.317 536.917 461.079 538.704C461.841 540.491 462.961 542.103 464.37 543.44C467.053 546.203 470.719 547.796 474.57 547.87H475C476.28 547.997 477.69 548.19 479.23 548.45H487.5C488.913 548.323 490.39 548.13 491.93 547.87C493.876 547.905 495.808 547.528 497.598 546.765C499.389 546.001 500.998 544.868 502.32 543.44C503.729 542.103 504.849 540.491 505.611 538.704C506.373 536.917 506.76 534.993 506.75 533.05L506.68 524.2ZM867.23 523.82C860.17 520.687 856.58 516.967 856.46 512.66C856.46 508.493 859.536 506.377 865.69 506.31C871.863 506.35 875.53 508.98 876.69 514.2L894.58 505.73C894.706 499.19 891.243 494.19 884.19 490.73C880.57 488.886 876.671 487.649 872.65 487.07C857.897 483.863 846.097 487.197 837.25 497.07C828.397 506.817 827.5 515.923 834.56 524.39C841.613 532.73 849.247 539.013 857.46 543.24C865.8 547.347 868.366 551.067 865.16 554.4C861.826 557.733 855.03 556.963 844.77 552.09L831.85 560C834.517 566.8 842.15 571.93 854.75 575.39C867.35 578.85 878.123 575.58 887.07 565.58C896.036 555.527 896.743 546.86 889.19 539.58C881.73 532.333 874.417 527.083 867.25 523.83L867.23 523.82ZM800.85 510.35C810.183 531.77 808.58 543.437 796.04 545.35C786.546 546.117 781.096 541.05 779.69 530.15C777.688 515.618 776.915 500.942 777.38 486.28H803.16V466.69L777.16 467.07L780.82 442.83L753.31 445.14L756 470L725.6 467.88V488.66H757.54C754.333 524.96 756.643 548.753 764.47 560.04C772.163 571.327 782.747 576.66 796.22 576.04C817.127 575.653 827.837 565.393 828.35 545.26C828.35 530.127 825.463 517.75 819.69 508.13L800.85 510.35ZM747 538.45L754.7 551.34C749.187 560.673 739.567 567.6 725.84 572.12C712.373 576.227 698.007 576.867 682.74 574.04C667.607 571.087 658.693 560.753 656 543.04C654.333 532.653 654.526 524.653 656.58 519.04C658.76 513.267 661.903 508.84 666.01 505.76C670.01 502.553 677.77 499.347 689.29 496.14C700.976 492.79 713.191 491.68 725.29 492.87C739.143 495.537 747.143 502.203 749.29 512.87C751.343 523.537 750.317 529.87 746.21 531.87L676 540C677.927 554.88 688.187 561.293 706.78 559.24C725.373 557.187 738.78 550.257 747 538.45ZM685.82 519.6C685.827 520.181 685.89 520.761 686.01 521.33L726.22 516.33C724.293 508.637 716.66 505.813 703.32 507.86C692.033 509.653 686.2 513.567 685.82 519.6ZM375.42 454.48L414 437.9L453.65 471.41L444.9 432.5L443.37 426L477.62 405.15H438.34L430.71 377L409.12 405.3H375.23L395.52 424.3L375.42 454.48ZM228.13 466.86L252.84 444L291.84 458.73L274.84 431.64L271.97 427.11L292.3 402.17L289.91 403.02L262.59 412.69L249.29 393.47L240.53 420.66L218 428.66L214.9 429.76L235.33 438.69L228.13 466.86ZM151.78 493.71L160.44 468.35L158.83 469.68L140.42 484.8L124.67 473.15L125.6 497.15L110.47 509.58L108.34 511.33L126.69 512.86L129.16 537.21L141.81 512.32L176.15 513.41L155.28 496.53L151.78 493.71Z" fill="white"/>
</g>
<defs>
<clipPath id="clip0_3_176">
<rect width="1024" height="1024" fill="white"/>
</clipPath>
</defs>
</svg>
